/* XPM */
static const char *SDL_icon_xpm[] = {
"50 50 5 1",
" 	c #000000",
".	c #F55692",
"+	c #57C8F4",
"@	c #FBFB2B",
"#	c #FEFEFE",
"                                                  ",
" ....................       .......... ++++++++++ ",
" ...............     ++++++            ++++++++++ ",
" ..........     +++++++++++++++++++++  ++++++++++ ",
" ......    ++++++++++++++++++++++++++++++++++++++ ",
" ...    +++++++++++++++++++++++++++++++++++++++++ ",
"     ++++++++++++++++++++++++++++++++++++++++++++ ",
"  +++++++++++++++++++++++++++++++++++++++++++++++ ",
" ++++++++++++++++++++++++++++++++++++++++++++++++ ",
" ++++++++++++++++++++++++++++++++++++++++++++++++ ",
" ++++++++++++++++++++++++++++++++++++++++++++++++ ",
" ++++++++++++++++++++++++++++++++++++++++++++++++ ",
" ++++++++++++++++++++++++++++++++++++++++++++++++ ",
" ++++++++++++++++++++++++++++++++++++++++++++++++ ",
" ++++++++++++++++++++++++++++++++++++++++++++++++ ",
" ++++++++++++++++++++++++++++++++++++++++++++++++ ",
" ++++++++++++++++++++++++++++++++++++++++++++++++ ",
" ++++++++++++++++++++++++++++++++++++++++++++++++ ",
" ++++++++++++++++++++++++++++++++++++++++++++++++ ",
" ++++++++++++++++++++++++++++++++++++++++++++++++ ",
" ++++++++++++++++++++++++++++++++++++++++++++++++ ",
" ++++++++++++++++++++++++++++++++++++++++++++++++ ",
" +++@@@@@@@@+++++++++++++++++++++++++++++++  ++++ ",
" ++@@@@@@@@@@++++++++++++++++++++++++++++     +++ ",
" +@@@@@@@@@@@@+++++++++++++++++++++++++   +++  ++ ",
" @@@@@++++@@@@@+++++++++++++++++++++++   ++++++++ ",
" @@@@++++++@@@@+++++++++++++++++++++++ ++++++++++ ",
" @@@  ++++++@@@++++++++++++++++++++++++++++++++++ ",
" @@@     +++@@@++++++++++++++++++++++++++++++++++ ",
" @@@++++  ++@@@++++++++++++++++++++++++++++++++++ ",
" @@@+++++  +@@@++++++++++++++++++++++++++++++++++ ",
" @@@@++++++@@@@++++++++++++++++++++++ +++++++++++ ",
" @@@@@++++@@@@@++++++++++  ++++++++++ +++++++++++ ",
" +@@@@@@@@@@@@++++++++++      ++++++  +++++++++++ ",
" ++@@@@@@@@@@+++++++++  # ###       +++++++++++++ ",
" +++@@@@@@@@+ +++++++  ### ##### ++++++++++++++++ ",
" ++++++++++++   ++   ##### #####  +++++++++++++++ ",
" +@@+++++++++++     ###### ###### +++++++++++++++ ",
" +@@+++++++++++++++ ###### ###### ++++++++++++++  ",
" ++++++++++++++++++ ############# +++++++++++++   ",
" @@++++++++++++++++ ############# +++++++++++++ . ",
" @@++++++++++++++++ ############  ++++++++++++  . ",
" ++++++++++++++++++  ########### +++++++++++++ .. ",
" @@+++++++++++++++++ ########## +++++++++++++  .. ",
" @@++++++++++++++++++  ######## ++++++++++++  ... ",
" ++++++++++++++++++++++        ++++++++++++  .... ",
"  ++++++++++++++++++++++++++++++++++++++++  ..... ",
"    +++++++++++++++++++++++++++++++++++++  ...... ",
" ..    +++++++++++++++++++++++++++++++++  ....... ",
"                                                  "};
